src/img/service-2.svg

<svg width="40" height="40" viewBox="0 0 40 40" fill="none" xmlns="http://www.w3.org/2000/svg">
<rect y="20" width="20" height="20" rx="8" fill="#3ED9B0"/>
<path d="M36.7657 35.4713H35.4758V36.7612H36.7657V35.4713Z" fill="#333333"/>
<path d="M23.867 36.1162H22.5771V37.4061H23.867V36.1162Z" fill="#333333"/>
<path d="M39.9459 35.4985C39.8562 34.956 39.6519 34.4388 39.3466 33.9815V22.5726C39.3419 19.6534 37.5508 17.0344 34.8321 15.9711V13.5436C34.8321 13.1874 34.5433 12.8987 34.1871 12.8987H30.5845L32.5193 10.9639H36.7669C36.9379 10.9639 37.1019 10.8958 37.2228 10.7749L39.8026 8.19516C39.9235 8.07423 39.9915 7.91026 39.9915 7.73919V4.51453C39.9915 4.34346 39.9235 4.17949 39.8026 4.05856L37.2228 1.47883C37.1019 1.35791 36.9379 1.28987 36.7669 1.28987H34.1871V0.644933C34.1871 0.288769 33.8984 0 33.5422 0H24.5131C24.3421 0 24.1781 0.0680404 24.0572 0.188965L18.8977 5.34843L6.14546 18.1007L2.47902 18.7121V18.723C2.34697 18.7409 2.22395 18.8 2.12753 18.892L0.19273 20.8268C-0.0590351 21.0787 -0.0590351 21.4869 0.19273 21.7387L5.99712 27.5431C6.24897 27.7949 6.65721 27.7949 6.90906 27.5431L8.84385 25.6083C8.93624 25.5119 8.99541 25.3886 9.01283 25.2562H9.02379L9.63519 21.5904L22.3894 8.84009L27.3599 3.8696H33.5422C33.8984 3.8696 34.1871 3.58083 34.1871 3.22466V2.57973H36.4999L38.7016 4.78153V7.47219L36.4999 9.67399H32.2523C32.0813 9.67399 31.9173 9.74203 31.7964 9.86295L28.7607 12.8987H25.1581C24.8019 12.8987 24.5131 13.1874 24.5131 13.5436V15.9711C21.7943 17.0344 20.0034 19.6534 19.9986 22.5726V36.7612C19.9986 38.5421 21.4424 39.9858 23.2233 39.9858C25.0042 39.9858 26.4479 38.5421 26.4479 36.7612H32.3104C32.659 38.8696 34.651 40.2962 36.7594 39.9475C38.868 39.5989 40.2946 37.6069 39.9459 35.4985ZM6.45502 26.1752L1.56257 21.2828L2.58543 20.2599L7.47789 25.1524L6.45502 26.1752ZM8.57879 20.8268C8.48374 20.9219 8.42086 21.0444 8.39885 21.177L7.95965 23.8103L3.92753 19.7781L6.56144 19.3389C6.69381 19.3168 6.81603 19.2539 6.91099 19.159L19.3537 6.71633L21.0215 8.38412L8.57879 20.8268ZM21.9334 7.47219L20.2656 5.80439L24.5131 1.55687L26.1809 3.22466L21.9334 7.47219ZM32.8973 2.57973H27.3599L26.07 1.28987H32.8973V2.57973ZM25.803 14.1885H33.5422V15.6016C33.1169 15.5212 32.6852 15.48 32.2523 15.4784H27.0929C26.66 15.48 26.2283 15.5212 25.803 15.6016V14.1885ZM27.0929 16.7682H32.2523C35.2072 16.7718 37.6891 18.9916 38.0212 21.9277H21.3239C21.656 18.9916 24.138 16.7718 27.0929 16.7682ZM21.2885 23.2176H38.0567V24.5074H21.2885V23.2176ZM38.0567 25.7973V28.377H34.1871V25.7973H38.0567ZM21.2885 25.7973H32.8973V27.0872H21.2885V25.7973ZM21.2885 28.377H32.8973V29.022C32.8973 29.3781 33.186 29.6669 33.5422 29.6669H38.0567V32.7703C37.6581 32.5391 37.2212 32.3814 36.7669 32.3047V31.6017C36.7669 31.2455 36.4781 30.9568 36.1219 30.9568H23.2233C22.8671 30.9568 22.5783 31.2455 22.5783 31.6017V33.601C22.1091 33.7005 21.6682 33.9043 21.2885 34.1975V28.377ZM23.2233 38.6959C22.1547 38.6959 21.2885 37.8297 21.2885 36.7612C21.2885 35.6926 22.1547 34.8264 23.2233 34.8264C24.2918 34.8264 25.1581 35.6926 25.1581 36.7612C25.1581 37.8297 24.2918 38.6959 23.2233 38.6959ZM32.3104 35.4713H26.1745C25.7543 34.5109 24.8947 33.8137 23.8682 33.601V32.2466H35.477V32.3047C33.8566 32.5816 32.5873 33.8509 32.3104 35.4713ZM36.1219 38.6959C34.6972 38.6959 33.5422 37.541 33.5422 36.1162C33.5422 34.6915 34.6972 33.5365 36.1219 33.5365C37.5467 33.5365 38.7016 34.6915 38.7016 36.1162C38.7016 37.541 37.5467 38.6959 36.1219 38.6959Z" fill="#333333"/>
<path d="M3.87423 27.732C3.87423 26.6635 3.00801 25.7972 1.93944 25.7972C0.870864 25.7972 0.00463867 26.6635 0.00463867 27.732C0.00463867 28.8006 0.870864 29.6668 1.93944 29.6668C3.00801 29.6668 3.87423 28.8006 3.87423 27.732ZM1.2945 27.732C1.2945 27.3759 1.58327 27.0871 1.93944 27.0871C2.2956 27.0871 2.58437 27.3759 2.58437 27.732C2.58437 28.0882 2.2956 28.377 1.93944 28.377C1.58327 28.377 1.2945 28.0882 1.2945 27.732Z" fill="#333333"/>
<path d="M2.58437 34.8264C1.15963 34.8264 0.00463867 35.9814 0.00463867 37.4061C0.00463867 38.8309 1.15963 39.9859 2.58437 39.9859C4.0091 39.9859 5.1641 38.8309 5.1641 37.4061C5.1641 35.9814 4.0091 34.8264 2.58437 34.8264ZM2.58437 38.696C1.87196 38.696 1.2945 38.1185 1.2945 37.4061C1.2945 36.6937 1.87196 36.1163 2.58437 36.1163C3.29678 36.1163 3.87423 36.6937 3.87423 37.4061C3.87423 38.1185 3.29678 38.696 2.58437 38.696Z" fill="#333333"/>
<path d="M5.80907 29.6669C4.74049 29.6669 3.87427 30.5331 3.87427 31.6017C3.87427 32.6702 4.74049 33.5365 5.80907 33.5365C6.87764 33.5365 7.74386 32.6702 7.74386 31.6017C7.74386 30.5331 6.87764 29.6669 5.80907 29.6669ZM5.80907 32.2466C5.4529 32.2466 5.16413 31.9578 5.16413 31.6017C5.16413 31.2455 5.4529 30.9567 5.80907 30.9567C6.16523 30.9567 6.454 31.2455 6.454 31.6017C6.454 31.9578 6.16523 32.2466 5.80907 32.2466Z" fill="#333333"/>
<path d="M11.6133 31.6017C10.5447 31.6017 9.67847 32.4679 9.67847 33.5365C9.67847 34.6051 10.5447 35.4713 11.6133 35.4713C12.6818 35.4713 13.5481 34.6051 13.5481 33.5365C13.5481 32.4679 12.6818 31.6017 11.6133 31.6017ZM11.6133 34.1814C11.2571 34.1814 10.9683 33.8926 10.9683 33.5365C10.9683 33.1803 11.2571 32.8916 11.6133 32.8916C11.9694 32.8916 12.2582 33.1803 12.2582 33.5365C12.2582 33.8926 11.9694 34.1814 11.6133 34.1814Z" fill="#333333"/>
<path d="M12.2582 24.5074C10.8335 24.5074 9.67847 25.6624 9.67847 27.0872C9.67847 28.5119 10.8335 29.6669 12.2582 29.6669C13.6829 29.6669 14.8379 28.5119 14.8379 27.0872C14.8379 25.6624 13.6829 24.5074 12.2582 24.5074ZM12.2582 28.377C11.5458 28.377 10.9683 27.7996 10.9683 27.0872C10.9683 26.3748 11.5458 25.7973 12.2582 25.7973C12.9706 25.7973 13.5481 26.3748 13.5481 27.0872C13.5481 27.7996 12.9706 28.377 12.2582 28.377Z" fill="#333333"/>
<path d="M7.74372 34.8264H6.45386V36.1163H7.74372V34.8264Z" fill="#333333"/>
<path d="M10.3236 36.7611H9.03369V38.051H10.3236V36.7611Z" fill="#333333"/>
</svg>

<svg width="40" height="40" viewBox="0 0 40 40" xmlns="http://www.w3.org/2000/svg" fill="none"><rect y="20" width="20" height="20" rx="8" fill="#3ED9B0"/><path d="M36.766 35.471h-1.29v1.29h1.29v-1.29zM23.867 36.116h-1.29v1.29h1.29v-1.29zM39.946 35.498c-.09-.542-.294-1.06-.599-1.517v-11.409c-.005-2.919-1.796-5.538-4.515-6.602v-2.428c0-.356-.289-.645-.645-.645h-3.603l1.935-1.935h4.248c.171 0 .335-.068.456-.189l2.58-2.58c.121-.121.189-.285.189-.456v-3.225c0-.171-.068-.335-.189-.456l-2.58-2.58c-.121-.121-.285-.189-.456-.189h-2.58v-.645c0-.356-.289-.645-.645-.645h-9.029c-.171 0-.335.068-.456.189l-5.16 5.159-12.752 12.752-3.666.611v.011c-.132.018-.255.077-.351.169l-1.935 1.935c-.252.252-.252.66 0 .912l5.804 5.804c.252.252.66.252.912 0l1.935-1.935c.092-.096.152-.22.169-.352h.011l.611-3.666 12.754-12.75 4.971-4.97h6.182c.356 0 .645-.289.645-.645v-.645h2.313l2.202 2.202v2.691l-2.202 2.202h-4.248c-.171 0-.335.068-.456.189l-3.036 3.036h-3.603c-.356 0-.645.289-.645.645v2.428c-2.719 1.063-4.51 3.682-4.515 6.602v14.189c0 1.781 1.444 3.225 3.225 3.225 1.781 0 3.225-1.444 3.225-3.225h5.863c.349 2.108 2.341 3.535 4.449 3.186 2.109-.349 3.535-2.341 3.187-4.449zm-33.491-9.323l-4.892-4.892 1.023-1.023 4.892 4.893-1.023 1.023zm2.124-5.348c-.095.095-.158.218-.18.35l-.439 2.633-4.032-4.032 2.634-.439c.132-.022.255-.085.35-.18l12.443-12.443 1.668 1.668-12.443 12.443zm13.355-13.355l-1.668-1.668 4.248-4.248 1.668 1.668-4.248 4.248zm10.964-4.892h-5.537l-1.29-1.29h6.827v1.29zm-7.094 11.609h7.739v1.413c-.425-.08-.857-.122-1.29-.123h-5.159c-.433.002-.865.043-1.29.123v-1.413zm1.29 2.58h5.159c2.955.004 5.437 2.223 5.769 5.16h-16.697c.332-2.936 2.814-5.156 5.769-5.16zm-5.804 6.449h16.768v1.29h-16.768v-1.29zm16.768 2.58v2.58h-3.87v-2.58h3.87zm-16.768 0h11.609v1.29h-11.609v-1.29zm0 2.58h11.609v.645c0 .356.289.645.645.645h4.514v3.103c-.399-.231-.835-.389-1.29-.466v-.703c0-.356-.289-.645-.645-.645h-12.899c-.356 0-.645.289-.645.645v1.999c-.469.099-.91.303-1.29.596v-5.82zm1.935 10.319c-1.069 0-1.935-.866-1.935-1.935s.866-1.935 1.935-1.935 1.935.866 1.935 1.935-.866 1.935-1.935 1.935zm9.087-3.225h-6.136c-.42-.96-1.28-1.658-2.306-1.87v-1.354h11.609v.058c-1.62.277-2.89 1.546-3.167 3.167zm3.811 3.225c-1.425 0-2.58-1.155-2.58-2.58s1.155-2.58 2.58-2.58 2.58 1.155 2.58 2.58-1.155 2.58-2.58 2.58zM3.874 27.732c0-1.069-.866-1.935-1.935-1.935s-1.935.866-1.935 1.935.866 1.935 1.935 1.935 1.935-.866 1.935-1.935zm-2.58 0c0-.356.289-.645.645-.645.356 0 .645.289.645.645 0 .356-.289.645-.645.645-.356 0-.645-.289-.645-.645zM2.584 34.826c-1.425 0-2.58 1.155-2.58 2.58s1.155 2.58 2.58 2.58 2.58-1.155 2.58-2.58-1.155-2.58-2.58-2.58zm0 3.87c-.712 0-1.29-.578-1.29-1.29 0-.712.577-1.29 1.29-1.29.712 0 1.29.577 1.29 1.29 0 .712-.577 1.29-1.29 1.29zM5.809 29.667c-1.069 0-1.935.866-1.935 1.935s.866 1.935 1.935 1.935 1.935-.866 1.935-1.935-.866-1.935-1.935-1.935zm0 2.58c-.356 0-.645-.289-.645-.645 0-.356.289-.645.645-.645.356 0 .645.289.645.645 0 .356-.289.645-.645.645zM11.613 31.602c-1.069 0-1.935.866-1.935 1.935s.866 1.935 1.935 1.935 1.935-.866 1.935-1.935-.866-1.935-1.935-1.935zm0 2.58c-.356 0-.645-.289-.645-.645 0-.356.289-.645.645-.645.356 0 .645.289.645.645 0 .356-.289.645-.645.645zM12.258 24.507c-1.425 0-2.58 1.155-2.58 2.58s1.155 2.58 2.58 2.58 2.58-1.155 2.58-2.58-1.155-2.58-2.58-2.58zm0 3.87c-.712 0-1.29-.577-1.29-1.29 0-.712.578-1.29 1.29-1.29.712 0 1.29.578 1.29 1.29 0 .712-.578 1.29-1.29 1.29zM7.744 34.826h-1.29v1.29h1.29v-1.29zM10.324 36.761h-1.29v1.29h1.29v-1.29z" fill="#333"/></svg>
